X:1
T:Katrin Ogie
L:1/4
M:4/4
K:Am
F|DGGG|AGG/2A/2c|AGA2|F3/2G/2AF|DGGG|AGGc|ddcA|G2A||\
c|dddA|cccG|AAAG|FGAF|DGGG|AGGc|ddcA|G2A|]
